X: 1
T: the Austrian
P: piffero primo a0463
O: strube
%R: march
F: http://ancients.sudburymuster.org/mus/ssp/pdf/struberevF.pdf
Z: 2019 John Chambers <jc:trillian.mit.edu>
M: 2/4
L: 1/16
K: G
D2 |\
G>AB>c d>ef>d | g2g2 f3d | e2e2 d3B | c>ec>A B>dB>G |\
A>Bc>A G>FE>D | G>AB>c d>ef>d |
g2g2 f3d | e2e2 d3B |\
c>ec>A B>dB>G | A>cA>F G2 |: e2 | d>BG>B A>FD>e |\
d>BG>B A2e2 |
d>BG>B A>FD>e | d>BG>B A2D2 | G>AB>c d>ef>d |\
g2g2 f3d | e2e2 d3B | c>ec>A B>dB>G | A>cA>F G2 :| 
